X:18
T:The Braes of Tulliemet
Z:Jack Campin, 2006, http://www.campin.me.uk/
M:C
L:1/8
Q:1/4=120
K:E Dorian
EA B>AB<d|F<DA>D B>DA>F|EA  B>AB<e|d>BA<F E2 E2:|
e>Be<g e>Be<g|d>Ad<f d>Ad<f|e>Be<g  e>Be<g|d>BA<F E2 E2 |
e>Be<g B>eg>e|d>Ad<f A>df>d|e>BB>c  d>ef>e|d>BA<F E<EE2|]
